X:74
%
T:Connaught Mans Rambles
C:Traditional
L:1/8
M:6/8
Q:1/4=80
K:D treble
%
|: "D" FAA dAA | "G" BAB dAG | "D" FAA dfe | "G" dBB BAG |
"D" FAA dAA | "G" BAB def | "G" gfe "D" efe | "Em" dBB B3 :|
|: "Bm" fbb faa | fef deg | fbb faf | fed e2 g |
"Bm" fbb faa | fef "D" def | "Em" gfe "D" efe | "G" dBB B3 :|

